lib/flags/m/231.svg

<svg xmlns="http://www.w3.org/2000/svg" fill="none" viewBox="0 0 20 15"><mask id="231_svg__a" width="20" height="15" x="0" y="0" mask-type="alpha" maskUnits="userSpaceOnUse"><path fill="#fff" d="M0 0H20V15H0z"/></mask><g mask="url(#231_svg__a)"><path fill="#FECA00" fill-rule="evenodd" d="M0 0V15H20V0H0Z" clip-rule="evenodd"/><mask id="231_svg__b" width="20" height="15" x="0" y="0" mask-type="alpha" maskUnits="userSpaceOnUse"><path fill="#fff" fill-rule="evenodd" d="M0 0V15H20V0H0Z" clip-rule="evenodd"/></mask><g mask="url(#231_svg__b)"><path fill="#5EAA22" fill-rule="evenodd" d="M0 0V5H20V0H0Z" clip-rule="evenodd"/><path fill="#E31D1C" fill-rule="evenodd" d="M0 10V15H20V10H0Z" clip-rule="evenodd"/><path fill="#2B77B8" fill-rule="evenodd" d="M10 11.25C12.0711 11.25 13.75 9.57107 13.75 7.5C13.75 5.42893 12.0711 3.75 10 3.75C7.92893 3.75 6.25 5.42893 6.25 7.5C6.25 9.57107 7.92893 11.25 10 11.25Z" clip-rule="evenodd"/><path stroke="#FECA00" stroke-width=".938" d="M9.99999 8.75L8.27372 9.32908L8.81117 7.88627L7.64026 6.48873H9.26526L9.99999 5L10.7347 6.48873H12.3955L11.1888 7.88627L11.6171 9.32908L9.99999 8.75Z" clip-rule="evenodd"/><path stroke="#2B77B8" stroke-width=".625" d="M9.81005 7.52161 8.50714 10.2467M9.60504 7.17468H7.10504M10.0759 8.02344 12.5191 9.15103M10.6042 7.4211 12.3727 5.48535"/></g></g></svg>

<svg xmlns="http://www.w3.org/2000/svg" fill="none" viewBox="0 0 20 15"><mask id="231_svg__a" width="20" height="15" x="0" y="0" maskUnits="userSpaceOnUse"><path fill="#fff" d="M0 0h20v15H0z"/></mask><g mask="url(#231_svg__a)"><path fill="#FECA00" fill-rule="evenodd" d="M0 0v15h20V0H0z" clip-rule="evenodd"/><mask id="231_svg__b" width="20" height="15" x="0" y="0" maskUnits="userSpaceOnUse"><path fill="#fff" fill-rule="evenodd" d="M0 0v15h20V0H0z" clip-rule="evenodd"/></mask><g mask="url(#231_svg__b)"><path fill="#5EAA22" fill-rule="evenodd" d="M0 0v5h20V0H0z" clip-rule="evenodd"/><path fill="#E31D1C" fill-rule="evenodd" d="M0 10v5h20v-5H0z" clip-rule="evenodd"/><path fill="#2B77B8" fill-rule="evenodd" d="M10 11.25a3.75 3.75 0 100-7.5 3.75 3.75 0 000 7.5z" clip-rule="evenodd"/><path stroke="#FECA00" stroke-width=".938" d="M10 8.75l-1.726.58.537-1.444-1.17-1.397h1.624L10 5l.735 1.489h1.66L11.19 7.886l.428 1.443L10 8.75z" clip-rule="evenodd"/><path stroke="#2B77B8" stroke-width=".625" d="M9.81 7.522l-1.303 2.725m1.098-3.072h-2.5m2.971.849l2.443 1.127m-1.915-1.73l1.769-1.936"/></g></g></svg>
